public/alergenos/lacteos.svg

<?xml version="1.0" encoding="UTF-8" standalone="no"?>
<!-- Created with Inkscape (http://www.inkscape.org/) -->

<svg
   xmlns:dc="http://purl.org/dc/elements/1.1/"
   xmlns:cc="http://creativecommons.org/ns#"
   xmlns:rdf="http://www.w3.org/1999/02/22-rdf-syntax-ns#"
   xmlns:svg="http://www.w3.org/2000/svg"
   xmlns="http://www.w3.org/2000/svg"
   xmlns:sodipodi="http://sodipodi.sourceforge.net/DTD/sodipodi-0.dtd"
   xmlns:inkscape="http://www.inkscape.org/namespaces/inkscape"
   width="262.20471"
   height="372.04724"
   id="svg4209"
   version="1.1"
   inkscape:version="0.48.5 r10040"
   sodipodi:docname="IconoAlergenoLacteos.svg">
  <defs
     id="defs4211" />
  <sodipodi:namedview
     id="base"
     pagecolor="#ffffff"
     bordercolor="#666666"
     borderopacity="1.0"
     inkscape:pageopacity="0.0"
     inkscape:pageshadow="2"
     inkscape:zoom="0.20031052"
     inkscape:cx="1166.5898"
     inkscape:cy="885.81209"
     inkscape:document-units="px"
     inkscape:current-layer="layer1"
     showgrid="false"
     inkscape:window-width="1280"
     inkscape:window-height="924"
     inkscape:window-x="0"
     inkscape:window-y="28"
     inkscape:window-maximized="1" />
  <metadata
     id="metadata4214">
    <rdf:RDF>
      <cc:Work
         rdf:about="">
        <dc:format>image/svg+xml</dc:format>
        <dc:type
           rdf:resource="http://purl.org/dc/dcmitype/StillImage" />
        <dc:title></dc:title>
      </cc:Work>
    </rdf:RDF>
  </metadata>
  <g
     inkscape:label="Capa 1"
     inkscape:groupmode="layer"
     id="layer1"
     transform="translate(0,-680.31494)">
    <g
       id="g4979"
       transform="matrix(5.5766334,0,0,5.5766334,-1073.8786,-1027.3502)">
      <text
         sodipodi:linespacing="125%"
         id="text4050-3"
         y="364.30551"
         x="203.27881"
         style="font-size:15px;font-style:normal;font-weight:normal;line-height:125%;letter-spacing:0px;word-spacing:0px;fill:#000000;fill-opacity:1;stroke:none;font-family:Sans"
         xml:space="preserve"><tspan
           style="font-size:5.5px"
           y="364.30551"
           x="203.27881"
           id="tspan4052-1"
           sodipodi:role="line">LACTEOS</tspan></text>
      <g
         id="g4972">
        <path
           sodipodi:type="arc"
           style="fill:#6d351e;fill-opacity:1;stroke:#6d351e;stroke-width:0.40000001;stroke-linecap:round;stroke-linejoin:round;stroke-miterlimit:4;stroke-opacity:1;stroke-dasharray:none;stroke-dashoffset:0"
           id="path3230-0-5"
           sodipodi:cx="21.573027"
           sodipodi:cy="29.287827"
           sodipodi:rx="18.363815"
           sodipodi:ry="18.720394"
           d="m 39.936842,29.287827 c 0,10.338988 -8.22176,18.720394 -18.363815,18.720394 -10.142055,0 -18.3638157,-8.381406 -18.3638157,-18.720394 0,-10.338989 8.2217607,-18.720395 18.3638157,-18.720395 10.142055,0 18.363815,8.381406 18.363815,18.720395 z"
           transform="matrix(1.1124938,0,0,1.0913035,192.07692,303.45594)" />
        <g
           id="g4264"
           transform="translate(-72.470092,306.21785)">
          <path
             inkscape:connector-curvature="0"
             id="path4240"
             d="m 290.7187,17.293747 2.125,-0.71875 1.5625,-0.40625 1,0.03125 0.75,0.25 0.625,0.59375 0.0625,0.71875 -0.125,0.5 -0.53125,0.4375 -0.90625,0.46875 -0.65625,0.40625 -0.375,0.5 -0.25,1.0625 -0.1875,0.875 0.1875,1.34375 0.6875,0.90625 0.9375,1.3125 1.03125,2.21875 0.4375,1.4375 0.40625,2.53125 0.125,1.78125 -0.0937,1.71875 -0.34375,1.875 -0.5625,1.34375 -0.65625,1.125 -0.75,1.21875 -0.71875,0.71875 -0.875,0.5 -1.59375,0.1875 -4.3125,-0.0625 -1.375,-0.125 -0.65625,-0.15625 -0.53125,-0.34375 -0.6875,-0.75 -1.46875,-2.1875 -0.5625,-1.5625 -0.375,-1.40625 -0.0625,-1.40625 0.0313,-0.59375 -0.46875,-0.6875 -0.6875,-1.25 -0.625,-1.28125 -0.5625,-1.9375 -0.21875,-1.09375 0.15625,-1.5625 0.28125,-1.53125 0.59375,-1.25 1.15625,-1.28125 1.1875,-0.65625 1.28125,-0.4375 -0.53125,-1.0625 -0.15625,-0.78125 0.125,-0.53125 0.6875,-0.5 1.375,-0.40625 1.46875,-0.21875 1.125,0 1.09375,0 0.65625,0.09375 -0.125,0.0625 -0.5625,0.15625 -0.75,0 -0.90625,0.0625 -1.28125,0.125 -0.96875,0.3125 -0.5625,0.3125 0.15625,0.3125 0.625,0.15625 0.9375,0.125 0.40625,-0.03125 0.875,-0.3125 1.46875,-0.625 1.0625,-0.46875 z"
             style="fill:#ffffff;stroke:#ffffff;stroke-width:0.05;stroke-linecap:round;stroke-linejoin:round;stroke-miterlimit:4;stroke-opacity:1;stroke-dasharray:none" />
          <path
             inkscape:connector-curvature="0"
             id="path4253"
             d="m 282.10937,31.153122 0.23438,-1.46875 0.48437,-1.65625 0.59375,-1.515625 0.53125,-0.984375 0.45313,-0.6875 0.14062,-0.25 0.20313,-0.578125 0.0469,-0.953125 -0.10937,-0.65625 -0.14063,-0.171875 -0.21875,-0.109375 -0.17187,0.0625 -0.90625,0.5 -0.64063,0.46875 -0.89062,0.921875 -0.46875,0.796875 -0.32813,1 -0.0937,1.046875 0.10938,1.03125 0.1875,0.953125 0.29687,0.875 0.3125,0.65625 z"
             style="fill:#6d351e;fill-opacity:1;stroke:#6d351e;stroke-width:0.05;stroke-linecap:butt;stroke-linejoin:round;stroke-miterlimit:4;stroke-opacity:1;stroke-dasharray:none" />
          <path
             inkscape:connector-curvature="0"
             id="path4255"
             d="m 286.125,20.793747 0.42187,-0.140625 0.46875,-0.01563 0.28125,0.0625 0.15625,0.328125 0.0625,0.5 0,0.984375 -0.0313,0.890625 -0.14062,0.875 -0.28125,0.6875 -0.17188,0.34375 -0.25,0.5 -0.29687,0.484375 -0.46875,0.765625 -0.3125,0.734375 -0.53125,1.1875 -0.375,1.09375 -0.25,0.609375 -0.20313,0.5 -0.20312,0.109375 -0.17188,-0.03125 -0.10937,-0.07813 -0.0625,-0.3125 0.28125,-1.5 0.375,-1.109375 0.53125,-1.4375 0.54687,-1.015625 0.45313,-0.875 0.3125,-0.703125 0.0937,-0.578125 -0.15625,-1.28125 -0.0781,-0.90625 L 286,21.106247 z"
             style="fill:#6d351e;fill-opacity:1;stroke:#6d351e;stroke-width:0.05;stroke-linecap:round;stroke-linejoin:round;stroke-miterlimit:4;stroke-opacity:1;stroke-dasharray:none" />
        </g>
      </g>
    </g>
  </g>
</svg>

<svg xmlns="http://www.w3.org/2000/svg" xmlns:xlink="http://www.w3.org/1999/xlink" width="80" zoomAndPan="magnify" viewBox="0 0 60 67.92" height="80" preserveAspectRatio="xMidYMid meet" version="1.0"><path stroke-linecap="round" transform="matrix(1.417976, 0, 0, 1.39479, -0.590036, -10.487903)" fill-opacity="1" fill="#6d351e" fill-rule="nonzero" stroke-linejoin="round" d="M 39.936584 29.288414 C 39.936584 39.625433 31.716237 48.007632 21.573035 48.007632 C 11.429833 48.007632 3.209487 39.625433 3.209487 29.288414 C 3.209487 18.948595 11.429833 10.566396 21.573035 10.566396 C 31.716237 10.566396 39.936584 18.948595 39.936584 29.288414 Z M 39.936584 29.288414 " stroke="#6d351e" stroke-width="0.4" stroke-opacity="1" stroke-miterlimit="4"/><path stroke-linecap="round" transform="matrix(1.274592, 0, 0, 1.278095, -337.779499, -6.957889)" fill-opacity="1" fill="#ffffff" fill-rule="nonzero" stroke-linejoin="round" d="M 290.719741 17.293248 L 292.843583 16.575016 L 294.406583 16.168527 L 295.405677 16.19909 L 296.15653 16.449707 L 296.78173 17.042631 L 296.843025 17.763919 L 296.717372 18.262097 L 296.187177 18.699148 L 295.280024 19.169819 L 294.624177 19.576308 L 294.250283 20.074486 L 293.998977 21.13808 L 293.81203 22.012183 L 293.998977 23.356958 L 294.688536 24.261624 L 295.626336 25.575836 L 296.656077 27.794713 L 297.09433 29.231177 L 297.498872 31.761798 L 297.624525 33.543624 L 297.532583 35.261268 L 297.186272 37.137839 L 296.62543 38.482614 L 295.969583 39.607334 L 295.21873 40.823744 L 294.498524 41.545032 L 293.625083 42.04321 L 292.031435 42.2327 L 287.719394 42.168518 L 286.34334 42.04321 L 285.687493 41.887338 L 285.157299 41.545032 L 284.46774 40.793181 L 282.999746 38.604866 L 282.438904 37.043094 L 282.061946 35.637193 L 282.000651 34.231293 L 282.031298 33.638369 L 281.562398 32.950701 L 280.875904 31.700672 L 280.250704 30.42008 L 279.686798 28.482382 L 279.469204 27.388225 L 279.625504 25.826453 L 279.907457 24.295244 L 280.498945 23.045215 L 281.657404 21.761566 L 282.843446 21.107517 L 284.124493 20.667409 L 283.594299 19.606871 L 283.437999 18.824457 L 283.563652 18.29266 L 284.250146 17.794482 L 285.626199 17.387993 L 287.094193 17.167939 L 289.313041 17.167939 L 289.968888 17.262685 L 289.843235 17.323811 L 289.282394 17.482739 L 288.531541 17.482739 L 287.624388 17.543865 L 286.34334 17.669173 L 285.374893 17.980916 L 284.814052 18.29266 L 284.967287 18.607459 L 285.592487 18.763331 L 286.530287 18.888639 L 286.937893 18.85502 L 287.811335 18.543277 L 289.282394 17.91979 L 290.342782 17.449119 Z M 290.719741 17.293248 " stroke="#ffffff" stroke-width="0.05" stroke-opacity="1" stroke-miterlimit="4"/><path stroke-linecap="butt" transform="matrix(1.274592, 0, 0, 1.278095, -337.779499, -6.957889)" fill-opacity="1" fill="#6d351e" fill-rule="nonzero" stroke-linejoin="round" d="M 282.107916 31.153593 L 282.343899 29.68351 L 282.828122 28.026993 L 283.422675 26.511065 L 283.952869 25.526935 L 284.406446 24.839266 L 284.547422 24.591705 L 284.749693 24.011007 L 284.795664 23.060496 L 284.688399 22.40339 L 284.547422 22.232237 L 284.326764 22.12221 L 284.15514 22.183336 L 283.251052 22.684571 L 282.610528 23.152185 L 281.718698 24.07519 L 281.249798 24.872885 L 280.921875 25.872297 L 280.826869 26.917554 L 280.937198 27.950585 L 281.124145 28.904152 L 281.421422 29.778256 L 281.734022 30.435361 Z M 282.107916 31.153593 " stroke="#6d351e" stroke-width="0.05" stroke-opacity="1" stroke-miterlimit="4"/><path stroke-linecap="round" transform="matrix(1.274592, 0, 0, 1.278095, -337.779499, -6.957889)" fill-opacity="1" fill="#6d351e" fill-rule="nonzero" stroke-linejoin="round" d="M 286.125746 20.792717 L 286.545611 20.652127 L 287.014511 20.636846 L 287.296464 20.701028 L 287.452764 21.028053 L 287.517123 21.529287 L 287.517123 22.513417 L 287.483411 23.402802 L 287.342435 24.276906 L 287.063546 24.964574 L 286.891923 25.309937 L 286.640617 25.808115 L 286.34334 26.294067 L 285.87444 27.058144 L 285.56184 27.794713 L 285.031646 28.98056 L 284.654687 30.074717 L 284.406446 30.682922 L 284.204175 31.184156 L 283.99884 31.294183 L 283.827216 31.26362 L 283.719952 31.184156 L 283.655593 30.872413 L 283.937546 29.371767 L 284.31144 28.262328 L 284.844699 26.825865 L 285.390217 25.808115 L 285.843793 24.934011 L 286.156393 24.231061 L 286.251399 23.653419 L 286.095099 22.372827 L 286.015417 21.465105 L 286.000093 21.107517 Z M 286.125746 20.792717 " stroke="#6d351e" stroke-width="0.05" stroke-opacity="1" stroke-miterlimit="4"/></svg>
